packages/ui-solid/icons/actions_28.svg

<svg width="28" height="28" viewBox="0 0 28 28" fill="none" xmlns="http://www.w3.org/2000/svg">
<path fill-rule="evenodd" clip-rule="evenodd" d="M14.7331 3.90001C14.2655 3.90001 13.8865 4.27905 13.8865 4.74663V5.27099H15.5797V4.74663C15.5797 4.27905 15.2007 3.90001 14.7331 3.90001ZM17.3797 5.27099V4.74663C17.3797 3.28494 16.1948 2.10001 14.7331 2.10001C13.2714 2.10001 12.0865 3.28494 12.0865 4.74663V5.27099H9.96516C7.27821 5.27099 5.1 7.44919 5.1 10.1361V20.7032C5.1 23.3902 7.27821 25.5684 9.96516 25.5684H19.002C21.689 25.5684 23.8672 23.3902 23.8672 20.7032V10.1362C23.8672 7.4492 21.689 5.27099 19.002 5.27099H17.3797ZM9.96516 7.07099C8.27232 7.07099 6.9 8.44331 6.9 10.1361V20.7032C6.9 22.3961 8.27232 23.7684 9.96516 23.7684H19.002C20.6949 23.7684 22.0672 22.3961 22.0672 20.7032V10.1362C22.0672 8.44331 20.6949 7.07099 19.002 7.07099H9.96516ZM9.59131 10.9275C9.59131 10.4304 9.99426 10.0275 10.4913 10.0275H18.4759C18.9729 10.0275 19.3759 10.4304 19.3759 10.9275C19.3759 11.4245 18.9729 11.8275 18.4759 11.8275H10.4913C9.99426 11.8275 9.59131 11.4245 9.59131 10.9275ZM9.59131 14.6269C9.59131 14.1299 9.99426 13.7269 10.4913 13.7269H18.4759C18.9729 13.7269 19.3759 14.1299 19.3759 14.6269C19.3759 15.124 18.9729 15.5269 18.4759 15.5269H10.4913C9.99426 15.5269 9.59131 15.124 9.59131 14.6269ZM11.0884 18.3264C11.0884 17.8294 11.4914 17.4264 11.9884 17.4264H16.9788C17.4758 17.4264 17.8788 17.8294 17.8788 18.3264C17.8788 18.8235 17.4758 19.2264 16.9788 19.2264H11.9884C11.4914 19.2264 11.0884 18.8235 11.0884 18.3264Z" fill="#007AFF"/>
</svg>

<svg xmlns="http://www.w3.org/2000/svg" width="28" height="28" fill="none"><path fill="currentColor" fill-rule="evenodd" d="M14.733 3.9a.847.847 0 0 0-.847.847v.524h1.694v-.524a.847.847 0 0 0-.847-.847m2.647 1.371v-.524a2.647 2.647 0 1 0-5.293 0v.524H9.965A4.865 4.865 0 0 0 5.1 10.136v10.567a4.865 4.865 0 0 0 4.865 4.865h9.037a4.865 4.865 0 0 0 4.865-4.865V10.136a4.865 4.865 0 0 0-4.865-4.865zm-7.415 1.8A3.065 3.065 0 0 0 6.9 10.136v10.567a3.065 3.065 0 0 0 3.065 3.065h9.037a3.065 3.065 0 0 0 3.065-3.065V10.136a3.065 3.065 0 0 0-3.065-3.065zm-.374 3.857a.9.9 0 0 1 .9-.9h7.985a.9.9 0 0 1 0 1.8H10.49a.9.9 0 0 1-.9-.9m0 3.699a.9.9 0 0 1 .9-.9h7.985a.9.9 0 0 1 0 1.8H10.49a.9.9 0 0 1-.9-.9m1.497 3.7a.9.9 0 0 1 .9-.9h4.99a.9.9 0 0 1 0 1.8h-4.99a.9.9 0 0 1-.9-.9" clip-rule="evenodd"/></svg>
